X:70
T:En dro
C:Sonneurs de Couple Biniou-Bombarde
M:4/4
L:1/8
K:G
B2A2 G2GA|B2A2 B2B2|\
BcBA G3A|BABc B4:|\
|:B2B2 A2Bc|
ded2 G4|1 A2AB A3B|\
c2Ac BAG2:|2 A2AB A2 Bc|defd g4||
